X: 26
T: Polonäs efter John Johansson
B: samling 2, nr 26 (sida 55)
O: Södermanland
R: Polonäs
Z: Nils
M: 3/4
L: 1/16
K: C
e4 c2d2 e2f2 | g2fe d4 d2f2 | e2c2 A2B2 c2e2 | (dc)Bc (dc)BA G4 |
e4 c2d2 e2f2 | g2(fe) d4 d2f2 | e2g2 A2B2 c2e2 | d2cB c4 C4 ::
c2(Bc) d4 d2e2 | e2B2 c2A2 B2G2 | (GA)Bc d4 d2e2 | d2c2 BcAB G4 |
e4 c2d2 e2f2 | g2fe d4 d2f2 | e2g2 A2B2 c2e2 | d2(cB) c4 C4 :|

